src/containers/site/SiteInvestmentScreen/asset/investment_feature_1.svg

<svg width="57" height="83" viewBox="0 0 57 83" fill="none" xmlns="http://www.w3.org/2000/svg">
<path d="M45.6978 25.5842C39.3644 25.5842 34.2326 30.7132 34.2326 36.9978V45.0055H29.8746V22.6649H37.8982C44.2315 22.6649 49.3837 17.5359 49.3837 11.2311V0H38.0815C31.7481 0 26.6163 5.12901 26.6163 11.4136V16.6237V22.6649V36.8762H22.7674V28.8684C22.7674 22.5636 17.6152 17.4548 11.3023 17.4548H0V28.686C0 34.9908 5.1522 40.1198 11.4855 40.1198H19.3258H22.7878H26.6163V55H29.8746V48.2492H34.2326H35.8617H45.5145C51.8478 48.2492 57 43.1202 57 36.8153V25.5842H45.6978Z" fill="url(#paint0_linear)"/>
<path fill-rule="evenodd" clip-rule="evenodd" d="M3.12109 82.8993V54.141H54.8792V82.8993H3.12109ZM12.7149 57.3632L6.3459 63.7271H6.32574V73.1118L12.8963 79.6771H45.0839L51.6544 73.1118V63.7472L45.2653 57.3632H12.7149ZM6.3459 79.4959L6.5273 79.6771H6.3459V79.4959ZM51.6343 79.4757L51.4327 79.6771H51.6343V79.4757Z" fill="url(#paint1_linear)"/>
<path fill-rule="evenodd" clip-rule="evenodd" d="M36.5785 68.5201C36.5785 72.6888 33.1723 76.0923 29.0002 76.0923C24.8079 76.0923 21.4219 72.6888 21.4219 68.5201C21.4219 64.3513 24.8281 60.9479 29.0002 60.9479C33.1723 60.9479 36.5785 64.3513 36.5785 68.5201ZM33.3537 68.5201C33.3537 66.1236 31.3986 64.1701 29.0002 64.1701C26.5816 64.1701 24.6467 66.1236 24.6467 68.5201C24.6467 70.9166 26.6017 72.8701 29.0002 72.8701C31.3986 72.8701 33.3537 70.9166 33.3537 68.5201Z" fill="url(#paint2_linear)"/>
<defs>
<linearGradient id="paint0_linear" x1="56.9912" y1="-0.000724482" x2="-0.00782082" y2="-0.000724482" gradientUnits="userSpaceOnUse">
<stop stop-color="#FFB300"/>
<stop offset="1" stop-color="#FF8E37"/>
</linearGradient>
<linearGradient id="paint1_linear" x1="3.11146" y1="82.8949" x2="54.8696" y2="82.8949" gradientUnits="userSpaceOnUse">
<stop stop-color="#5C8BFC"/>
<stop offset="1" stop-color="#84B0FF"/>
</linearGradient>
<linearGradient id="paint2_linear" x1="21.4065" y1="76.0936" x2="36.5745" y2="76.0936" gradientUnits="userSpaceOnUse">
<stop stop-color="#5C8BFC"/>
<stop offset="1" stop-color="#84B0FF"/>
</linearGradient>
</defs>
</svg>

<svg width="57" height="83" fill="none" xmlns="http://www.w3.org/2000/svg"><path d="M45.698 25.584c-6.334 0-11.465 5.13-11.465 11.414v8.008h-4.358V22.664h8.023c6.333 0 11.486-5.13 11.486-11.434V0H38.08c-6.333 0-11.465 5.129-11.465 11.414v25.462h-3.849v-8.008c0-6.304-5.152-11.413-11.465-11.413H0v11.231C0 34.991 5.152 40.12 11.486 40.12H26.615V55h3.259v-6.75h15.639C51.849 48.25 57 43.12 57 36.814v-11.23H45.698z" fill="url(#paint0_linear)"/><path fill-rule="evenodd" clip-rule="evenodd" d="M3.121 82.9V54.14H54.88v28.758H3.121zm9.594-25.537l-6.37 6.364h-.02v9.385l6.571 6.565h32.188l6.57-6.565v-9.365l-6.389-6.384h-32.55zm-6.37 22.133l.182.181h-.181v-.181zm45.29-.02l-.202.201h.201v-.201z" fill="url(#paint1_linear)"/><path fill-rule="evenodd" clip-rule="evenodd" d="M36.578 68.52c0 4.169-3.406 7.572-7.578 7.572a7.58 7.58 0 01-7.578-7.572c0-4.169 3.406-7.572 7.578-7.572 4.172 0 7.578 3.403 7.578 7.572zm-3.224 0A4.36 4.36 0 0029 64.17a4.346 4.346 0 00-4.353 4.35A4.36 4.36 0 0029 72.87a4.36 4.36 0 004.354-4.35z" fill="url(#paint2_linear)"/><defs><linearGradient id="paint0_linear" x1="56.991" y1="-.001" x2="-.008" y2="-.001" gradientUnits="userSpaceOnUse"><stop stop-color="#FFB300"/><stop offset="1" stop-color="#FF8E37"/></linearGradient><linearGradient id="paint1_linear" x1="3.111" y1="82.895" x2="54.87" y2="82.895" gradientUnits="userSpaceOnUse"><stop stop-color="#5C8BFC"/><stop offset="1" stop-color="#84B0FF"/></linearGradient><linearGradient id="paint2_linear" x1="21.407" y1="76.094" x2="36.575" y2="76.094" gradientUnits="userSpaceOnUse"><stop stop-color="#5C8BFC"/><stop offset="1" stop-color="#84B0FF"/></linearGradient></defs></svg>
